svg/fluentui-system-icons/ic_fluent_tv_usb_24_filled.svg

<svg width="24" height="24" viewBox="0 0 24 24" fill="none" xmlns="http://www.w3.org/2000/svg">
<path d="M4.75 3C3.23122 3 2 4.23122 2 5.75V14.25C2 15.7688 3.23122 17 4.75 17H14.5V14C14.5 13.1821 14.8928 12.4559 15.5 11.9998V11C15.5 9.61929 16.6193 8.5 18 8.5H21C21.3556 8.5 21.6938 8.57422 22 8.70802V5.75C22 4.23122 20.7688 3 19.25 3H4.75ZM5.75 18.5H14.7511C14.7972 18.5949 14.8494 18.6871 14.9076 18.7761L15.7078 20H5.75C5.33579 20 5 19.6642 5 19.25C5 18.8358 5.33579 18.5 5.75 18.5ZM17.5 20L16.163 17.9552C16.0567 17.7925 16 17.6024 16 17.408V14C16 13.4477 16.4477 13 17 13V11C17 10.4477 17.4477 10 18 10H21C21.5523 10 22 10.4477 22 11V13C22.5523 13 23 13.4477 23 14V17.4407C23 17.6376 22.9419 17.8301 22.8329 17.9941L21.5 20V22C21.5 22.5523 21.0523 23 20.5 23H18.5C17.9477 23 17.5 22.5523 17.5 22V20ZM18.5 11.5V13H20.5V11.5H18.5Z" fill="#212121"/>
</svg>

<svg xmlns="http://www.w3.org/2000/svg" width="24" height="24"><path d="M4.75 3A2.75 2.75 0 0 0 2 5.75v8.5A2.75 2.75 0 0 0 4.75 17h9.75v-3c0-.818.393-1.544 1-2v-1A2.5 2.5 0 0 1 18 8.5h3c.356 0 .694.074 1 .208V5.75A2.75 2.75 0 0 0 19.25 3H4.75Zm1 15.5h9.001c.046.095.098.187.157.276l.8 1.224H5.75a.75.75 0 0 1 0-1.5ZM17.5 20l-1.337-2.045a1 1 0 0 1-.163-.547V14a1 1 0 0 1 1-1v-2a1 1 0 0 1 1-1h3a1 1 0 0 1 1 1v2a1 1 0 0 1 1 1v3.44a1 1 0 0 1-.167.554L21.5 20v2a1 1 0 0 1-1 1h-2a1 1 0 0 1-1-1v-2Zm1-8.5V13h2v-1.5h-2Z"/></svg>
